X:1
T:Title
%%score { ( 1 4 ) | ( 2 3 ) }
L:1/8
M:6/8
K:Ab
V:1 treble nm="Grand Piano"
V:4 treble 
V:2 treble 
V:3 treble 
V:1
 z3 z2[Q:1/4=78] E/A/ | c2 c/c/ c2 c/e/ | [EAc]2 [DGB] [CA]2 [A,EA]/[A,EG]/ | %3
 [A,DF]2 [DFA] [DFd]2 [A,DF] |[M:5/8] [A,CE]-[A,CE]- [A,CE]3 |[M:1/8] E/A/ | %6
[M:3/4] c2 c/c/ [EAc]2 [FAd] | [FAc]2 [DGB] [CFA]2 [FA]/[FA]/ | [=DB]2 [DF]/[DF]/ [DB]2 [DB] | %9
[M:5/8] B-B- B3 |[M:1/8] C/[B,D]/ |[M:3/4] [CE]2 [DF]/[DG]/ [CA]2 B | c4- c[Ec]/[EB]/ | z2 z B z2 | %14
[M:5/8] [A,CE]-[A,CE]- [A,CE]3 |[M:1/8] [A,C]/[B,D]/ |[M:3/4] [CE]2 [DF]/[DG]/ [CA]2 B | %17
[M:7/8] c2 d e3 [Fd]/[Fd]/ |[M:3/4] cE A [Gc]2 [GB] |[M:5/8] [EA]-[EA]- [EA]3 |] %20
V:2
 z3 z2 [A,C]/[A,CE]/ | [A,EA]2 A/A/ [A,EA]2 [A,EA]/[A,CA]/ | E,2 E, A,2 C,/C,/ | D,2 D, D,2 D, | %4
[M:5/8] A,,-A,,- A,,3 |[M:1/8][K:treble] z/ E/ |[M:3/4] [A,EA]2 A/A/ A,2[K:bass] D, | %7
 E,2 E, F,2 [F,C] | [B,,B,]2 [B,,B,]/[B,,B,]/ [B,,A,]2 [B,,A,] |[M:5/8] [E,G,D]-[E,G,D]- [E,G,D]3 | %10
[M:1/8] [A,,E,]/[A,,E,]/ |[M:3/4] [A,,A,]2 [A,,A,]/[A,,A,]/ [A,,A,]2 [E,G,E] | %12
 [A,E]4- [A,E][A,,A,]/[C,A,]/ | D,2 D,<.D, AD, |[M:5/8] A,,-A,,- A,,3 |[M:1/8] [A,,E,] | %16
[M:3/4] [A,,A,]2 [A,,A,]/[A,,A,]/ [A,,A,]2 [E,G,E] | %17
[M:7/8][K:treble] [A,E]2 [A,B,E] [A,CA]3[K:bass] [D,A,]/[D,A,]/ | %18
[M:3/4] [E,A,E][E,A,C] [E,A,C] [E,E]2 [E,D] |[M:5/8] [A,C]-[A,C]- [A,C]3 |] %20
V:3
 x6 | z2 [A,E] z3 | x6 | x6 |[M:5/8] x5 |[M:1/8][K:treble] [A,C] |[M:3/4] z2 .[A,E]2 z2[K:bass] | %7
 x6 | x6 |[M:5/8] x5 |[M:1/8] x |[M:3/4] x6 | x6 | z2 z .D,3 |[M:5/8] x5 |[M:1/8] x |[M:3/4] x6 | %17
[M:7/8][K:treble] x6[K:bass] x |[M:3/4] x6 |[M:5/8] x5 |] %20
V:4
 x6 | x6 | x6 | x6 |[M:5/8] x5 |[M:1/8] x |[M:3/4] x6 | x6 | x6 |[M:5/8] x5 |[M:1/8] x | %11
[M:3/4] x6 | x6 | [A,FA]2 [A,=EG]/[A,FA]/ [DF]2 [A,DF] |[M:5/8] x5 |[M:1/8] x |[M:3/4] x6 | %17
[M:7/8] x7 |[M:3/4] x6 |[M:5/8] x5 |] %20

